outputs/icons/social/remove_person_sharp.svg

<svg xmlns="http://www.w3.org/2000/svg" width="1200" height="1200" fill="none"><g clip-path="url(#a)"><path fill="#000" d="M700 400c0-110.5-89.5-200-200-200s-200 89.5-200 200 89.5 200 200 200 200-89.5 200-200m150 100v100h300V500zM100 900v100h800V900c0-133-266.5-200-400-200s-400 67-400 200"/></g><defs><clipPath id="a"><path fill="#fff" d="M0 0h1200v1200H0z"/></clipPath></defs></svg>

<svg width="1200" height="1200" viewBox="0 0 1200 1200" fill="none" xmlns="http://www.w3.org/2000/svg"><g clip-path="url(#clip0_122_371)"><path d="M700 400C700 289.5 610.5 200 500 200C389.5 200 300 289.5 300 400C300 510.5 389.5 600 500 600C610.5 600 700 510.5 700 400ZM850 500V600H1150V500H850ZM100 900V1000H900V900C900 767 633.5 700 500 700C366.5 700 100 767 100 900Z" fill="#1D1E23"/></g><defs><clipPath id="clip0_122_371"><path width="24" fill="white" d="M0 0H1200V1200H0V0z"/></clipPath></defs></svg>
